img/ava4.svg

<svg width="50" height="50" viewBox="0 0 50 50" fill="none" xmlns="http://www.w3.org/2000/svg">
<circle cx="25" cy="25" r="25" fill="black"/>
<mask id="mask0_0_49" style="mask-type:alpha" maskUnits="userSpaceOnUse" x="0" y="0" width="50" height="50">
<circle cx="25" cy="25" r="25" fill="white"/>
</mask>
<g mask="url(#mask0_0_49)">
</g>
<g clip-path="url(#clip0_0_49)">
<g filter="url(#filter0_i_0_49)">
<path fill-rule="evenodd" clip-rule="evenodd" d="M3.5226 24.0078C2.77407 22.323 3.56694 20.3529 5.27389 19.6562L26.9263 10.8195C28.5042 10.1756 30.312 10.8526 31.0788 12.3746L41.0788 32.2243C41.9137 33.8817 41.2022 35.9009 39.5128 36.6688L17.2488 46.7879C15.5962 47.539 13.6481 46.7989 12.9111 45.14L3.5226 24.0078Z" fill="url(#paint0_linear_0_49)"/>
</g>
<g filter="url(#filter1_di_0_49)">
<path fill-rule="evenodd" clip-rule="evenodd" d="M8.76836 14.6818C8.51265 13.0773 9.60661 11.5695 11.2112 11.3148L35.3489 7.4831C36.9528 7.22849 38.4595 8.32229 38.7141 9.9262L42.3919 33.0914C42.6567 34.7589 41.5161 36.3241 39.8476 36.583L15.7111 40.3272C14.1702 40.5663 12.7261 39.5146 12.4807 37.9747L8.76836 14.6818Z" fill="url(#paint1_linear_0_49)"/>
</g>
<g clip-path="url(#clip1_0_49)">
<path fill-rule="evenodd" clip-rule="evenodd" d="M25.1535 21.629L31.2063 20.6704L30.292 14.898L18.2975 16.7977L18.3059 16.8507L25.1535 21.629Z" fill="url(#paint2_linear_0_49)"/>
<path fill-rule="evenodd" clip-rule="evenodd" d="M25.1545 21.6289L19.1017 22.5875L20.0159 28.3599L32.0105 26.4602L32.0021 26.4072L25.1545 21.6289Z" fill="url(#paint3_linear_0_49)"/>
<path fill-rule="evenodd" clip-rule="evenodd" d="M20.016 28.3599L26.0132 27.4101L26.9359 33.2359L20.016 28.3599Z" fill="url(#paint4_linear_0_49)"/>
</g>
</g>
<defs>
<filter id="filter0_i_0_49" x="3.24023" y="10.5767" width="38.1888" height="36.5048" filterUnits="userSpaceOnUse" color-interpolation-filters="sRGB">
<feFlood flood-opacity="0" result="BackgroundImageFix"/>
<feBlend mode="normal" in="SourceGraphic" in2="BackgroundImageFix" result="shape"/>
<feColorMatrix in="SourceAlpha" type="matrix" values="0 0 0 0 0 0 0 0 0 0 0 0 0 0 0 0 0 0 127 0" result="hardAlpha"/>
<feOffset/>
<feGaussianBlur stdDeviation="0.5"/>
<feComposite in2="hardAlpha" operator="arithmetic" k2="-1" k3="1"/>
<feColorMatrix type="matrix" values="0 0 0 0 1 0 0 0 0 1 0 0 0 0 1 0 0 0 0.478261 0"/>
<feBlend mode="normal" in2="shape" result="effect1_innerShadow_0_49"/>
</filter>
<filter id="filter1_di_0_49" x="6.73126" y="7.4463" width="39.6988" height="38.9148" filterUnits="userSpaceOnUse" color-interpolation-filters="sRGB">
<feFlood flood-opacity="0" result="BackgroundImageFix"/>
<feColorMatrix in="SourceAlpha" type="matrix" values="0 0 0 0 0 0 0 0 0 0 0 0 0 0 0 0 0 0 127 0" result="hardAlpha"/>
<feOffset dx="1" dy="3"/>
<feGaussianBlur stdDeviation="1.5"/>
<feColorMatrix type="matrix" values="0 0 0 0 0 0 0 0 0 0 0 0 0 0 0 0 0 0 1 0"/>
<feBlend mode="normal" in2="BackgroundImageFix" result="effect1_dropShadow_0_49"/>
<feBlend mode="normal" in="SourceGraphic" in2="effect1_dropShadow_0_49" result="shape"/>
<feColorMatrix in="SourceAlpha" type="matrix" values="0 0 0 0 0 0 0 0 0 0 0 0 0 0 0 0 0 0 127 0" result="hardAlpha"/>
<feOffset dy="1"/>
<feGaussianBlur stdDeviation="0.5"/>
<feComposite in2="hardAlpha" operator="arithmetic" k2="-1" k3="1"/>
<feColorMatrix type="matrix" values="0 0 0 0 1 0 0 0 0 1 0 0 0 0 1 0 0 0 0.26087 0"/>
<feBlend mode="normal" in2="shape" result="effect2_innerShadow_0_49"/>
</filter>
<linearGradient id="paint0_linear_0_49" x1="-7.03015" y1="31.8385" x2="16.0288" y2="54.4426" gradientUnits="userSpaceOnUse">
<stop stop-color="#00F3FF"/>
<stop offset="0.358293" stop-color="#00A8FC"/>
<stop offset="1" stop-color="#0048DF"/>
</linearGradient>
<linearGradient id="paint1_linear_0_49" x1="8.30688" y1="11.7663" x2="12.913" y2="40.8481" gradientUnits="userSpaceOnUse">
<stop stop-color="white"/>
<stop offset="0.489734" stop-color="white"/>
<stop offset="1" stop-color="#D9F3FF"/>
</linearGradient>
<linearGradient id="paint2_linear_0_49" x1="30.7405" y1="15.1887" x2="20.1486" y2="15.224" gradientUnits="userSpaceOnUse">
<stop stop-color="#8DE4FF"/>
<stop offset="1" stop-color="#30CEFF"/>
</linearGradient>
<linearGradient id="paint3_linear_0_49" x1="31.1481" y1="21.0155" x2="20.5153" y2="22.6995" gradientUnits="userSpaceOnUse">
<stop stop-color="#00C5FF"/>
<stop offset="1" stop-color="#009AFF"/>
</linearGradient>
<linearGradient id="paint4_linear_0_49" x1="20.016" y1="28.3599" x2="20.9387" y2="34.1858" gradientUnits="userSpaceOnUse">
<stop stop-color="#005AFF"/>
<stop offset="1" stop-color="#008DFF"/>
</linearGradient>
<clipPath id="clip0_0_49">
<rect width="41" height="42" fill="white" transform="translate(2 7)"/>
</clipPath>
<clipPath id="clip1_0_49">
<rect width="12.3184" height="17.6354" fill="white" transform="translate(18.1874 16.8151) rotate(-9)"/>
</clipPath>
</defs>
</svg>

<svg width="50" height="50" fill="none" xmlns="http://www.w3.org/2000/svg"><circle cx="25" cy="25" r="25" fill="#000"/><mask id="a" style="mask-type:alpha" maskUnits="userSpaceOnUse" x="0" y="0" width="50" height="50"><circle cx="25" cy="25" r="25" fill="#fff"/></mask><g clip-path="url(#b)"><g filter="url(#c)"><path fill-rule="evenodd" clip-rule="evenodd" d="M3.523 24.008a3.267 3.267 0 0 1 1.75-4.352l21.653-8.836a3.267 3.267 0 0 1 4.153 1.555l10 19.85a3.267 3.267 0 0 1-1.566 4.444L17.249 46.788a3.267 3.267 0 0 1-4.338-1.648L3.523 24.008Z" fill="url(#d)"/></g><g filter="url(#e)"><path fill-rule="evenodd" clip-rule="evenodd" d="M8.768 14.682a2.94 2.94 0 0 1 2.443-3.367L35.35 7.483a2.94 2.94 0 0 1 3.365 2.443l3.678 23.165a3.05 3.05 0 0 1-2.544 3.492L15.71 40.327a2.832 2.832 0 0 1-3.23-2.352L8.768 14.682Z" fill="url(#f)"/></g><g clip-path="url(#g)" fill-rule="evenodd" clip-rule="evenodd"><path d="m25.154 21.629 6.052-.959-.914-5.772-11.995 1.9.009.053 6.848 4.778Z" fill="url(#h)"/><path d="m25.154 21.629-6.052.958.914 5.773 11.995-1.9-.009-.053-6.848-4.778Z" fill="url(#i)"/><path d="m20.016 28.36 5.997-.95.923 5.826-6.92-4.876Z" fill="url(#j)"/></g></g><defs><linearGradient id="d" x1="-7.03" y1="31.838" x2="16.029" y2="54.443" gradientUnits="userSpaceOnUse"><stop stop-color="#00F3FF"/><stop offset=".358" stop-color="#00A8FC"/><stop offset="1" stop-color="#0048DF"/></linearGradient><linearGradient id="f" x1="8.307" y1="11.766" x2="12.913" y2="40.848" gradientUnits="userSpaceOnUse"><stop stop-color="#fff"/><stop offset=".49" stop-color="#fff"/><stop offset="1" stop-color="#D9F3FF"/></linearGradient><linearGradient id="h" x1="30.741" y1="15.189" x2="20.149" y2="15.224" gradientUnits="userSpaceOnUse"><stop stop-color="#8DE4FF"/><stop offset="1" stop-color="#30CEFF"/></linearGradient><linearGradient id="i" x1="31.148" y1="21.015" x2="20.515" y2="22.7" gradientUnits="userSpaceOnUse"><stop stop-color="#00C5FF"/><stop offset="1" stop-color="#009AFF"/></linearGradient><linearGradient id="j" x1="20.016" y1="28.36" x2="20.939" y2="34.186" gradientUnits="userSpaceOnUse"><stop stop-color="#005AFF"/><stop offset="1" stop-color="#008DFF"/></linearGradient><clipPath id="b"><path fill="#fff" transform="translate(2 7)" d="M0 0h41v42H0z"/></clipPath><clipPath id="g"><path fill="#fff" transform="rotate(-9 115.922 -107.139)" d="M0 0h12.318v17.635H0z"/></clipPath><filter id="c" x="3.24" y="10.577" width="38.189" height="36.505" filterUnits="userSpaceOnUse" color-interpolation-filters="sRGB"><feFlood flood-opacity="0" result="BackgroundImageFix"/><feBlend in="SourceGraphic" in2="BackgroundImageFix" result="shape"/><feColorMatrix in="SourceAlpha" values="0 0 0 0 0 0 0 0 0 0 0 0 0 0 0 0 0 0 127 0" result="hardAlpha"/><feOffset/><feGaussianBlur stdDeviation=".5"/><feComposite in2="hardAlpha" operator="arithmetic" k2="-1" k3="1"/><feColorMatrix values="0 0 0 0 1 0 0 0 0 1 0 0 0 0 1 0 0 0 0.478261 0"/><feBlend in2="shape" result="effect1_innerShadow_0_49"/></filter><filter id="e" x="6.731" y="7.446" width="39.699" height="38.915" filterUnits="userSpaceOnUse" color-interpolation-filters="sRGB"><feFlood flood-opacity="0" result="BackgroundImageFix"/><feColorMatrix in="SourceAlpha" values="0 0 0 0 0 0 0 0 0 0 0 0 0 0 0 0 0 0 127 0" result="hardAlpha"/><feOffset dx="1" dy="3"/><feGaussianBlur stdDeviation="1.5"/><feColorMatrix values="0 0 0 0 0 0 0 0 0 0 0 0 0 0 0 0 0 0 1 0"/><feBlend in2="BackgroundImageFix" result="effect1_dropShadow_0_49"/><feBlend in="SourceGraphic" in2="effect1_dropShadow_0_49" result="shape"/><feColorMatrix in="SourceAlpha" values="0 0 0 0 0 0 0 0 0 0 0 0 0 0 0 0 0 0 127 0" result="hardAlpha"/><feOffset dy="1"/><feGaussianBlur stdDeviation=".5"/><feComposite in2="hardAlpha" operator="arithmetic" k2="-1" k3="1"/><feColorMatrix values="0 0 0 0 1 0 0 0 0 1 0 0 0 0 1 0 0 0 0.26087 0"/><feBlend in2="shape" result="effect2_innerShadow_0_49"/></filter></defs></svg>
